icons/train-fill.svg

<svg xmlns="http://www.w3.org/2000/svg" width="24" height="24" fill="none"><g clip-path="url(#a)"><g><path fill="#121212" d="M17.2 20L19 21.5V22H5V21.5L6.8 20H5C4.46957 20 3.96086 19.7893 3.58579 19.4142C3.21071 19.0391 3 18.5304 3 18V7C3 5.93913 3.42143 4.92172 4.17157 4.17157C4.92172 3.42143 5.93913 3 7 3H17C18.0609 3 19.0783 3.42143 19.8284 4.17157C20.5786 4.92172 21 5.93913 21 7V18C21 18.5304 20.7893 19.0391 20.4142 19.4142C20.0391 19.7893 19.5304 20 19 20H17.2ZM5 7V11H19V7H5ZM12 18C12.5304 18 13.0391 17.7893 13.4142 17.4142C13.7893 17.0391 14 16.5304 14 16C14 15.4696 13.7893 14.9609 13.4142 14.5858C13.0391 14.2107 12.5304 14 12 14C11.4696 14 10.9609 14.2107 10.5858 14.5858C10.2107 14.9609 10 15.4696 10 16C10 16.5304 10.2107 17.0391 10.5858 17.4142C10.9609 17.7893 11.4696 18 12 18Z"/></g></g><defs><clipPath id="a"><rect width="24" height="24" fill="white"/></clipPath></defs></svg>

<svg width="24" height="24" fill="none" xmlns="http://www.w3.org/2000/svg"><g clip-path="url(#a)"><path d="m17.2 20 1.8 1.5v.5H5v-.5L6.8 20H5a2 2 0 0 1-2-2V7a4 4 0 0 1 4-4h10a4 4 0 0 1 4 4v11a2 2 0 0 1-2 2h-1.8ZM5 7v4h14V7H5Zm7 11a2 2 0 1 0 0-4 2 2 0 0 0 0 4Z" /></g><defs><clipPath id="a"><path fill="#fff" d="M0 0h24v24H0z"/></clipPath></defs></svg>
